X: 8
T:La mère Michel
T:C'est la mère Michel
C:Paroles traditionnelles du début du XIX siècle sur un air du XVIIe
Z:Transcrit et/ou corrigé par Michel BELLON - 2006-04-28
Z:Pour toute observation mailto:galouvielle@free.fr
M:2/4
L:1/8
K:F
"F"F>F FF | FCFG | A2 "C"G2 | "F"F2 zF | "C"E>D EF | GAGF | E2D2 | "C7"C2 zC |
G>G GA | B3B | "F"AFcA | "C"G3G | "Bb"B>B BB | "F"AAAA | "C"G2c2 | "F"F>F FE |
"Dm"D2 D>D | DEFD | "C"C2 C>C | C3C | "F"F2 A2 | "C7"c>B AG | "F"F>c "C7"cc | "F"F2z2 |]

%%footer $D   Galouvielle-MBe 2006 \n-- (--)
